packages/kaspersky-hexa-ui-icons/src/iconsSVGs/24/MoreActive1.svg

<svg xmlns="http://www.w3.org/2000/svg" width="24" height="24" fill="none" viewBox="0 0 24 24"><path fill="#000" stroke="#000" d="M22 11.8701c0 5.2467-4.2533 9.5-9.5 9.5s-9.5-4.2533-9.5-9.5 4.2533-9.5 9.5-9.5 9.5 4.2533 9.5 9.5Zm-13.5 1.5c.8284 0 1.5-.6716 1.5-1.5s-.6716-1.5-1.5-1.5-1.5.6716-1.5 1.5.6716 1.5 1.5 1.5Zm4 0c.8284 0 1.5-.6716 1.5-1.5s-.6716-1.5-1.5-1.5-1.5.6716-1.5 1.5.6716 1.5 1.5 1.5Zm4 0c.8284 0 1.5-.6716 1.5-1.5s-.6716-1.5-1.5-1.5-1.5.6716-1.5 1.5.6716 1.5 1.5 1.5Z"/></svg>

<svg width="24" height="24" viewBox="0 0 24 24" fill="none" xmlns="http://www.w3.org/2000/svg">
<path d="M22 11.8701C22 17.1168 17.7467 21.3701 12.5 21.3701C7.2533 21.3701 3 17.1168 3 11.8701C3 6.62341 7.2533 2.37012 12.5 2.37012C17.7467 2.37012 22 6.62341 22 11.8701ZM8.5 13.3701C9.32843 13.3701 10 12.6985 10 11.8701C10 11.0417 9.32843 10.3701 8.5 10.3701C7.67157 10.3701 7 11.0417 7 11.8701C7 12.6985 7.67157 13.3701 8.5 13.3701ZM12.5 13.3701C13.3284 13.3701 14 12.6985 14 11.8701C14 11.0417 13.3284 10.3701 12.5 10.3701C11.6716 10.3701 11 11.0417 11 11.8701C11 12.6985 11.6716 13.3701 12.5 13.3701ZM16.5 13.3701C17.3284 13.3701 18 12.6985 18 11.8701C18 11.0417 17.3284 10.3701 16.5 10.3701C15.6716 10.3701 15 11.0417 15 11.8701C15 12.6985 15.6716 13.3701 16.5 13.3701Z" fill="black" stroke="black"/>
</svg>
